public/assets/img/hero-new-bg.svg

<svg xmlns="http://www.w3.org/2000/svg" xmlns:xlink="http://www.w3.org/1999/xlink" width="2758.848" height="1628.429"><image overflow="visible" width="3170" height="2552" xlink:href="50C3B42D.png" transform="scale(.8703 .6381)"/><defs><path id="a" d="M0 0h2758.848v1689.291H0z"/></defs><clipPath id="b"><use xlink:href="#a" overflow="visible"/></clipPath><g clip-path="url(#b)"><path fill="#EDF0F7" d="M0 0h2758.848v1688.265H0z"/><defs><path id="c" d="M0 0h2758.848v1688.265H0z"/></defs><defs><path id="e" d="M0 0h2758.848v1688.265H0z"/></defs><defs><path id="g" d="M0 0h2758.848v1688.265H0z"/></defs><clipPath id="d"><use xlink:href="#c" overflow="visible"/></clipPath><clipPath id="f" clip-path="url(#d)"><use xlink:href="#e" overflow="visible"/></clipPath><clipPath id="h" clip-path="url(#f)"><use xlink:href="#g" overflow="visible"/></clipPath><linearGradient id="i" gradientUnits="userSpaceOnUse" x1="-263.01" y1="270.334" x2="199.714" y2="733.058" gradientTransform="matrix(1 0 0 -1 0 1629.429)"><stop offset=".313" stop-color="#e9e9ff" stop-opacity="0"/><stop offset=".828" stop-color="#e4e4ff" stop-opacity=".75"/><stop offset="1" stop-color="#e1e1ff"/></linearGradient><path clip-path="url(#h)" fill="url(#i)" d="M295.547 1127.736c0 180.701-146.491 327.193-327.198 327.193-180.702 0-327.192-146.492-327.192-327.193 0-180.707 146.49-327.199 327.192-327.199 180.707 0 327.198 146.492 327.198 327.199z"/><linearGradient id="j" gradientUnits="userSpaceOnUse" x1="574.054" y1="1007.309" x2="777.501" y2="1210.755" gradientTransform="matrix(1 0 0 -1 0 1629.429)"><stop offset="0" stop-color="#e9e9ff" stop-opacity="0"/><stop offset=".75" stop-color="#e4e4ff" stop-opacity=".75"/><stop offset="1" stop-color="#e1e1ff"/></linearGradient><path clip-path="url(#h)" fill="url(#j)" d="M819.634 520.395c0 79.454-64.401 143.859-143.854 143.859-79.453 0-143.862-64.405-143.862-143.859 0-79.448 64.409-143.856 143.862-143.856 79.451-.002 143.854 64.406 143.854 143.856z"/><linearGradient id="k" gradientUnits="userSpaceOnUse" x1="685.852" y1="166.271" x2="1368.001" y2="-515.878" gradientTransform="matrix(1 0 0 -1 0 1629.429)"><stop offset="0" stop-color="#e1e1ff"/><stop offset=".25" stop-color="#e4e4ff" stop-opacity=".75"/><stop offset="1" stop-color="#e9e9ff" stop-opacity="0"/></linearGradient><circle clip-path="url(#h)" fill="url(#k)" cx="1026.926" cy="1804.232" r="482.352"/><defs><path id="l" d="M0 0h2758.848v1689.291H0z"/></defs><clipPath id="m"><use xlink:href="#l" overflow="visible"/></clipPath><g clip-path="url(#m)"><linearGradient id="n" gradientUnits="userSpaceOnUse" x1="1311.482" y1="1762.091" x2="2852.673" y2="220.9" gradientTransform="matrix(1 0 0 -1 0 1629.429)"><stop offset=".387" stop-color="#7638ff"/><stop offset=".944" stop-color="#5445ff"/></linearGradient><path fill="url(#n)" d="M1029.129 259.267c-49.604 85.922-49.604 191.774 0 277.697l477.213 826.547c49.606 85.918 141.274 138.844 240.487 138.844h1012.019V0H1178.819l-149.69 259.267z"/><defs><path id="o" d="M1029.129 259.267c-49.604 85.922-49.604 191.774 0 277.697l477.213 826.547c49.606 85.918 141.274 138.844 240.487 138.844h1012.019V0H1178.819l-149.69 259.267z"/></defs><defs><path id="q" d="M1029.129 259.267c-49.604 85.922-49.604 191.774 0 277.697l477.213 826.547c49.606 85.918 141.274 138.844 240.487 138.844h1012.019V0H1178.819l-149.69 259.267z"/></defs><defs><path id="s" d="M1029.129 259.267c-49.604 85.922-49.604 191.774 0 277.697l477.213 826.547c49.606 85.918 141.274 138.844 240.487 138.844h1012.019V0H1178.819l-149.69 259.267z"/></defs><clipPath id="p"><use xlink:href="#o" overflow="visible"/></clipPath><clipPath id="r" clip-path="url(#p)"><use xlink:href="#q" overflow="visible"/></clipPath><clipPath id="t" clip-path="url(#r)"><use xlink:href="#s" overflow="visible"/></clipPath><linearGradient id="u" gradientUnits="userSpaceOnUse" x1="1961.762" y1="1422.252" x2="2521.587" y2="862.428" gradientTransform="matrix(1 0 0 -1 0 1629.429)"><stop offset="0" stop-color="#8c50ff"/><stop offset=".717" stop-color="#8c50ff" stop-opacity="0"/></linearGradient><path clip-path="url(#t)" fill="url(#u)" d="M2637.531 487.088c0 218.625-177.232 395.857-395.854 395.857-218.629 0-395.858-177.232-395.858-395.857s177.229-395.855 395.858-395.855c218.622-.001 395.854 177.23 395.854 395.855z"/><linearGradient id="v" gradientUnits="userSpaceOnUse" x1="1048.573" y1="1742.848" x2="1526.795" y2="1264.626" gradientTransform="matrix(1 0 0 -1 0 1629.429)"><stop offset=".283" stop-color="#8c50ff" stop-opacity="0"/><stop offset="1" stop-color="#8c50ff"/></linearGradient><path clip-path="url(#t)" fill="url(#v)" d="M1625.837 125.693c0 186.756-151.394 338.155-338.155 338.155-186.754 0-338.152-151.398-338.152-338.155 0-186.757 151.398-338.157 338.152-338.157 186.761 0 338.155 151.401 338.155 338.157z"/><linearGradient id="w" gradientUnits="userSpaceOnUse" x1="1514.502" y1="870.255" x2="1912.532" y2="472.225" gradientTransform="matrix(1 0 0 -1 0 1629.429)"><stop offset="0" stop-color="#8c50ff"/><stop offset=".717" stop-color="#8c50ff" stop-opacity="0"/></linearGradient><circle clip-path="url(#t)" fill="url(#w)" cx="1713.516" cy="958.189" r="281.449"/></g></g></svg>

<svg width="2759" height="1629" viewBox="0 0 2759 1629" fill="none" xmlns="http://www.w3.org/2000/svg">
<g clip-path="url(#clip0_838_10)">
<mask id="mask0_838_10" style="mask-type:luminance" maskUnits="userSpaceOnUse" x="0" y="0" width="2759" height="1690">
<path d="M0 0H2758.85V1689.29H0V0Z" fill="white"/>
</mask>
<g mask="url(#mask0_838_10)">
<path d="M0 0H2758.85V1688.27H0V0Z" fill="#EDF0F7"/>
<mask id="mask1_838_10" style="mask-type:luminance" maskUnits="userSpaceOnUse" x="0" y="0" width="2759" height="1689">
<mask id="mask2_838_10" style="mask-type:luminance" maskUnits="userSpaceOnUse" x="0" y="0" width="2759" height="1689">
<mask id="mask3_838_10" style="mask-type:luminance" maskUnits="userSpaceOnUse" x="0" y="0" width="2759" height="1689">
<path d="M0 0H2758.85V1688.27H0V0Z" fill="white"/>
</mask>
<g mask="url(#mask3_838_10)">
<path d="M0 0H2758.85V1688.27H0V0Z" fill="white"/>
</g>
</mask>
<g mask="url(#mask2_838_10)">
<path d="M0 0H2758.85V1688.27H0V0Z" fill="white"/>
</g>
</mask>
<g mask="url(#mask1_838_10)">
<path d="M295.547 1127.74C295.547 1308.44 149.056 1454.93 -31.651 1454.93C-212.353 1454.93 -358.843 1308.44 -358.843 1127.74C-358.843 947.029 -212.353 800.537 -31.651 800.537C149.056 800.537 295.547 947.029 295.547 1127.74Z" fill="url(#paint0_linear_838_10)"/>
</g>
<mask id="mask4_838_10" style="mask-type:luminance" maskUnits="userSpaceOnUse" x="0" y="0" width="2759" height="1689">
<mask id="mask5_838_10" style="mask-type:luminance" maskUnits="userSpaceOnUse" x="0" y="0" width="2759" height="1689">
<mask id="mask6_838_10" style="mask-type:luminance" maskUnits="userSpaceOnUse" x="0" y="0" width="2759" height="1689">
<path d="M0 0H2758.85V1688.27H0V0Z" fill="white"/>
</mask>
<g mask="url(#mask6_838_10)">
<path d="M0 0H2758.85V1688.27H0V0Z" fill="white"/>
</g>
</mask>
<g mask="url(#mask5_838_10)">
<path d="M0 0H2758.85V1688.27H0V0Z" fill="white"/>
</g>
</mask>
<g mask="url(#mask4_838_10)">
<path d="M819.634 520.395C819.634 599.849 755.233 664.254 675.78 664.254C596.327 664.254 531.918 599.849 531.918 520.395C531.918 440.947 596.327 376.539 675.78 376.539C755.231 376.537 819.634 440.945 819.634 520.395Z" fill="url(#paint1_linear_838_10)"/>
</g>
<mask id="mask7_838_10" style="mask-type:luminance" maskUnits="userSpaceOnUse" x="0" y="0" width="2759" height="1689">
<mask id="mask8_838_10" style="mask-type:luminance" maskUnits="userSpaceOnUse" x="0" y="0" width="2759" height="1689">
<mask id="mask9_838_10" style="mask-type:luminance" maskUnits="userSpaceOnUse" x="0" y="0" width="2759" height="1689">
<path d="M0 0H2758.85V1688.27H0V0Z" fill="white"/>
</mask>
<g mask="url(#mask9_838_10)">
<path d="M0 0H2758.85V1688.27H0V0Z" fill="white"/>
</g>
</mask>
<g mask="url(#mask8_838_10)">
<path d="M0 0H2758.85V1688.27H0V0Z" fill="white"/>
</g>
</mask>
<g mask="url(#mask7_838_10)">
<path d="M1026.93 2286.58C1293.32 2286.58 1509.28 2070.63 1509.28 1804.23C1509.28 1537.84 1293.32 1321.88 1026.93 1321.88C760.53 1321.88 544.574 1537.84 544.574 1804.23C544.574 2070.63 760.53 2286.58 1026.93 2286.58Z" fill="url(#paint2_linear_838_10)"/>
</g>
<mask id="mask10_838_10" style="mask-type:luminance" maskUnits="userSpaceOnUse" x="0" y="0" width="2759" height="1690">
<path d="M0 0H2758.85V1689.29H0V0Z" fill="white"/>
</mask>
<g mask="url(#mask10_838_10)">
<path d="M1029.13 259.267C979.525 345.189 979.525 451.041 1029.13 536.964L1506.34 1363.51C1555.95 1449.43 1647.62 1502.35 1746.83 1502.35H2758.85V0H1178.82L1029.13 259.267Z" fill="url(#paint3_linear_838_10)"/>
<mask id="mask11_838_10" style="mask-type:luminance" maskUnits="userSpaceOnUse" x="991" y="0" width="1768" height="1503">
<mask id="mask12_838_10" style="mask-type:luminance" maskUnits="userSpaceOnUse" x="991" y="0" width="1768" height="1503">
<mask id="mask13_838_10" style="mask-type:luminance" maskUnits="userSpaceOnUse" x="991" y="0" width="1768" height="1503">
<path d="M1029.13 259.267C979.525 345.189 979.525 451.041 1029.13 536.964L1506.34 1363.51C1555.95 1449.43 1647.62 1502.35 1746.83 1502.35H2758.85V0H1178.82L1029.13 259.267Z" fill="white"/>
</mask>
<g mask="url(#mask13_838_10)">
<path d="M1029.13 259.267C979.525 345.189 979.525 451.041 1029.13 536.964L1506.34 1363.51C1555.95 1449.43 1647.62 1502.35 1746.83 1502.35H2758.85V0H1178.82L1029.13 259.267Z" fill="white"/>
</g>
</mask>
<g mask="url(#mask12_838_10)">
<path d="M1029.13 259.267C979.525 345.189 979.525 451.041 1029.13 536.964L1506.34 1363.51C1555.95 1449.43 1647.62 1502.35 1746.83 1502.35H2758.85V0H1178.82L1029.13 259.267Z" fill="white"/>
</g>
</mask>
<g mask="url(#mask11_838_10)">
<path d="M2637.53 487.088C2637.53 705.713 2460.3 882.945 2241.68 882.945C2023.05 882.945 1845.82 705.713 1845.82 487.088C1845.82 268.463 2023.05 91.2329 2241.68 91.2329C2460.3 91.2319 2637.53 268.463 2637.53 487.088Z" fill="url(#paint4_linear_838_10)"/>
</g>
<mask id="mask14_838_10" style="mask-type:luminance" maskUnits="userSpaceOnUse" x="991" y="0" width="1768" height="1503">
<mask id="mask15_838_10" style="mask-type:luminance" maskUnits="userSpaceOnUse" x="991" y="0" width="1768" height="1503">
<mask id="mask16_838_10" style="mask-type:luminance" maskUnits="userSpaceOnUse" x="991" y="0" width="1768" height="1503">
<path d="M1029.13 259.267C979.525 345.189 979.525 451.041 1029.13 536.964L1506.34 1363.51C1555.95 1449.43 1647.62 1502.35 1746.83 1502.35H2758.85V0H1178.82L1029.13 259.267Z" fill="white"/>
</mask>
<g mask="url(#mask16_838_10)">
<path d="M1029.13 259.267C979.525 345.189 979.525 451.041 1029.13 536.964L1506.34 1363.51C1555.95 1449.43 1647.62 1502.35 1746.83 1502.35H2758.85V0H1178.82L1029.13 259.267Z" fill="white"/>
</g>
</mask>
<g mask="url(#mask15_838_10)">
<path d="M1029.13 259.267C979.525 345.189 979.525 451.041 1029.13 536.964L1506.34 1363.51C1555.95 1449.43 1647.62 1502.35 1746.83 1502.35H2758.85V0H1178.82L1029.13 259.267Z" fill="white"/>
</g>
</mask>
<g mask="url(#mask14_838_10)">
<path d="M1625.84 125.693C1625.84 312.449 1474.44 463.848 1287.68 463.848C1100.93 463.848 949.53 312.45 949.53 125.693C949.53 -61.0639 1100.93 -212.464 1287.68 -212.464C1474.44 -212.464 1625.84 -61.0629 1625.84 125.693Z" fill="url(#paint5_linear_838_10)"/>
</g>
<mask id="mask17_838_10" style="mask-type:luminance" maskUnits="userSpaceOnUse" x="991" y="0" width="1768" height="1503">
<mask id="mask18_838_10" style="mask-type:luminance" maskUnits="userSpaceOnUse" x="991" y="0" width="1768" height="1503">
<mask id="mask19_838_10" style="mask-type:luminance" maskUnits="userSpaceOnUse" x="991" y="0" width="1768" height="1503">
<path d="M1029.13 259.267C979.525 345.189 979.525 451.041 1029.13 536.964L1506.34 1363.51C1555.95 1449.43 1647.62 1502.35 1746.83 1502.35H2758.85V0H1178.82L1029.13 259.267Z" fill="white"/>
</mask>
<g mask="url(#mask19_838_10)">
<path d="M1029.13 259.267C979.525 345.189 979.525 451.041 1029.13 536.964L1506.34 1363.51C1555.95 1449.43 1647.62 1502.35 1746.83 1502.35H2758.85V0H1178.82L1029.13 259.267Z" fill="white"/>
</g>
</mask>
<g mask="url(#mask18_838_10)">
<path d="M1029.13 259.267C979.525 345.189 979.525 451.041 1029.13 536.964L1506.34 1363.51C1555.95 1449.43 1647.62 1502.35 1746.83 1502.35H2758.85V0H1178.82L1029.13 259.267Z" fill="white"/>
</g>
</mask>
<g mask="url(#mask17_838_10)">
<path d="M1713.52 1239.64C1868.96 1239.64 1994.96 1113.63 1994.96 958.189C1994.96 802.749 1868.96 676.74 1713.52 676.74C1558.08 676.74 1432.07 802.749 1432.07 958.189C1432.07 1113.63 1558.08 1239.64 1713.52 1239.64Z" fill="url(#paint6_linear_838_10)"/>
</g>
</g>
</g>
</g>
<defs>
<linearGradient id="paint0_linear_838_10" x1="-263.01" y1="1359.1" x2="199.714" y2="896.371" gradientUnits="userSpaceOnUse">
<stop offset="0.313" stop-color="#E9E9FF" stop-opacity="0"/>
<stop offset="0.828" stop-color="#E4E4FF" stop-opacity="0.75"/>
<stop offset="1" stop-color="#E1E1FF"/>
</linearGradient>
<linearGradient id="paint1_linear_838_10" x1="574.054" y1="622.12" x2="777.501" y2="418.674" gradientUnits="userSpaceOnUse">
<stop stop-color="#E9E9FF" stop-opacity="0"/>
<stop offset="0.75" stop-color="#E4E4FF" stop-opacity="0.75"/>
<stop offset="1" stop-color="#E1E1FF"/>
</linearGradient>
<linearGradient id="paint2_linear_838_10" x1="685.852" y1="1463.16" x2="1368" y2="2145.31" gradientUnits="userSpaceOnUse">
<stop stop-color="#E1E1FF"/>
<stop offset="0.25" stop-color="#E4E4FF" stop-opacity="0.75"/>
<stop offset="1" stop-color="#E9E9FF" stop-opacity="0"/>
</linearGradient>
<linearGradient id="paint3_linear_838_10" x1="1311.48" y1="-132.662" x2="2852.67" y2="1408.53" gradientUnits="userSpaceOnUse">
<stop offset="0.387" stop-color="#58B43D"/>
<stop offset="0.944" stop-color="#69BC50"/>
</linearGradient>
<linearGradient id="paint4_linear_838_10" x1="1961.76" y1="207.177" x2="2521.59" y2="767.001" gradientUnits="userSpaceOnUse">
<stop stop-color="#6BBB53"/>
<stop offset="0.717" stop-color="#6BBB53" stop-opacity="0"/>
</linearGradient>
<linearGradient id="paint5_linear_838_10" x1="1048.57" y1="-113.419" x2="1526.8" y2="364.803" gradientUnits="userSpaceOnUse">
<stop offset="0.283" stop-color="#6BBB53" stop-opacity="0"/>
<stop offset="1" stop-color="#6BBB53"/>
</linearGradient>
<linearGradient id="paint6_linear_838_10" x1="1514.5" y1="759.174" x2="1912.53" y2="1157.2" gradientUnits="userSpaceOnUse">
<stop stop-color="#6BBB53"/>
<stop offset="0.717" stop-color="#69BC50" stop-opacity="0"/>
</linearGradient>
<clipPath id="clip0_838_10">
<rect width="2758.85" height="1628.43" fill="white"/>
</clipPath>
</defs>
</svg>
